storage/app/icons/phosphoricons/fill/credit-card-fill.svg

<svg xmlns="http://www.w3.org/2000/svg" fill="currentColor" viewBox="0 0 256 256"><path d="M224 48H32a16 16 0 0 0-16 16v128a16 16 0 0 0 16 16h192a16 16 0 0 0 16-16V64a16 16 0 0 0-16-16m-88 128h-16a8 8 0 0 1 0-16h16a8 8 0 0 1 0 16m64 0h-32a8 8 0 0 1 0-16h32a8 8 0 0 1 0 16M32 88V64h192v24Z"/></svg>

<svg xmlns="http://www.w3.org/2000/svg" viewBox="0 0 256 256" fill="currentColor"><path d="M224,48H32A16,16,0,0,0,16,64V192a16,16,0,0,0,16,16H224a16,16,0,0,0,16-16V64A16,16,0,0,0,224,48ZM136,176H120a8,8,0,0,1,0-16h16a8,8,0,0,1,0,16Zm64,0H168a8,8,0,0,1,0-16h32a8,8,0,0,1,0,16ZM32,88V64H224V88Z"/></svg>
